X: 220
T: Drag her around the Road
R:reel
M:4/4
L:1/8
K:G
GA|"Em"BEED E2GE|EDCE "D"DEGA|"Em"BEED E2DE|1"G"GABG "D"A2:|2"G"GABG "D"Ac:|
BA |"G" G2GF GBdB |"C(Am)" cBAB cded |"G" B3A GBdB | dBGB "D"A2BA |
"G"GEDE GBdB |"C(Am)" cBAB cdef |"G" gedB "C"c2ge |"G" dBGB "D"A2 |]


